app/dist/common/images/netfonds-ag.svg

<svg height="18" viewBox="0 0 18 18" width="18" xmlns="http://www.w3.org/2000/svg"><path d="m0 0h18v18h-18z" fill="#f0f3fa"/><path d="m5 9.14c0-.83-.13-.8-1-.94v-.2h2.14l3.13 4.71v-4.71h.73v6h-.97l-3.35-5.07h-.02v5.07h-.66z" fill="#686868"/><path d="m10 4v2h-1v-2zm1.36 3.31-.79-.76 1.78-1.71.78.75zm2.64.69h-2.51v1.07h2.51zm-1.66 4-1.77-1.72.78-.75 1.78 1.71zm-6.34-6.4 1.78 1.72.78-.76-1.78-1.72z" fill="#2cabd8"/></svg>

<!-- by TradingView --><svg width="18" height="18" viewBox="0 0 18 18" xmlns="http://www.w3.org/2000/svg"><path fill="#F0F3FA" d="M0 0h18v18H0z"/><path d="M5 9.14c0-.83-.13-.8-1-.94V8h2.14l3.13 4.71V8H10v6h-.97L5.68 8.93h-.02V14H5V9.14Z" fill="#686868"/><path d="M10 4v2H9V4h1Zm1.36 3.31-.79-.76 1.78-1.71.78.75-1.77 1.72ZM14 8h-2.51v1.07H14V8Zm-1.66 4-1.77-1.72.78-.75 1.78 1.71-.79.76ZM6 5.6l1.78 1.72.78-.76-1.78-1.72L6 5.6Z" fill="#2CABD8"/></svg>
